X: 502
T: Valiant, The
R: jig
M: 6/8
L: 1/8
K: Gmaj
"G"B2 B BAG | "D/F#"B2 A ABA | "Em"G2 G GAG | "Bm/D"G2 F F2 D |"C"E2 E EFG | 
"G/B"E2 D D2 D | "C"G2 G GAB | "D"B2 A A3 |"G"BAB dcB | "D/F#"B2 A ABA | 
"Em"GAG GAG | "Bm/D"G2 F F2 D |"C"E2 E EFG | "G/B"BAG FED | "C"EFG "D"AGF | "G"A2G G2B |]
|: "G"dBd "C"e2e | "G"dcB A"D"BA | "G/B"G2 G "C"GAB | "D"B2 A G2B |"G"dBd "C"e2e | "G"dcB "D"ABA |
"C"GFG "D"AGF | "G"A2 G G2D :||: "Em"E2E EFG | "D/F#"E2D D2 D | "G"GFG G GAB | "D"B2A A2D |
"Em"E2E EFG | "D/F#"BAG "G"FED | "C"EFG "D"AGF | "G"A2G G3 :|

%%newpage
%%textfont * 14
%%begintext justify
%%48 Bar Jigs
%%endtext
